microsoft-xbox-controller-view.svg

<svg fill="currentColor" viewBox="0 0 24 24"><path d="M12 2C6.47 2 2 6.5 2 12a10 10 0 0 0 10 10 10 10 0 0 0 10-10A10 10 0 0 0 12 2M6 7h9v2H8v5H6zm3 3h9v7H9zm2 2v3h5v-3z"/></svg>

<svg  viewBox="0 0 24 24" fill="currentColor"><path  d="M12,2C6.47,2 2,6.5 2,12A10,10 0 0,0 12,22A10,10 0 0,0 22,12A10,10 0 0,0 12,2M6,7H15V9H8V14H6V7M9,10H18V17H9V10M11,12V15H16V12H11Z"/></svg>
